src/assets/duotone/Box2.svg

<?xml version="1.0" encoding="UTF-8"?>
<svg width="24" height="24" viewBox="0 0 24 24" xmlns="http://www.w3.org/2000/svg">
 <path d="m5.3301 19.42c-0.11 0-0.23001-0.03-0.33001-0.08l-2.22-1.11c-0.25-0.13-0.40999-0.39-0.40999-0.67v-2.78c0-0.41 0.34-0.75 0.75-0.75s0.75 0.34 0.75 0.75v2.31l1.81 0.9c0.37 0.19 0.52 0.64 0.34 1.01-0.15 0.26-0.40999 0.42-0.68999 0.42z" opacity=".4"/>
 <path d="m12 22.75c-0.06 0-0.12-0.01-0.17-0.02-0.06-0.01-0.12-0.04-0.18-0.07l-2.21-1.1c-0.37-0.19-0.52-0.64-0.34-1.01 0.19-0.37 0.64-0.52 1.01-0.34l1.14 0.57v-1.56c0-0.41 0.34-0.75 0.75-0.75s0.75 0.34 0.75 0.75v1.56l1.14-0.57c0.37-0.18 0.82-0.03 1.01 0.34s0.04 0.82-0.34 1.01l-2.21 1.1c-0.06 0.03-0.12 0.05-0.18 0.07-0.06 0.01-0.11 0.02-0.17 0.02z"/>
 <path d="m18.67 19.42c-0.27 0-0.54-0.15-0.67-0.41-0.19-0.37-0.04-0.82 0.34-1.01l1.81-0.8999v-2.3101c0-0.41 0.34-0.75 0.75-0.75s0.75 0.34 0.75 0.75v2.7801c0 0.28-0.16 0.54-0.41 0.67l-2.22 1.11c-0.13 0.04-0.24 0.0699-0.35 0.0699z" opacity=".4"/>
 <path d="m12 14.42c-0.41 0-0.75-0.34-0.75-0.75v-2.31l-1.81-0.8999c-0.37-0.19-0.52-0.64006-0.34-1.0101 0.19-0.37 0.64-0.51999 1.01-0.33999l1.89 0.93995 1.89-0.93995c0.37-0.18 0.82-0.04001 1.01 0.33999 0.19 0.37 0.04 0.82006-0.34 1.0101l-1.81 0.8999v2.31c0 0.41-0.34 0.75-0.75 0.75z"/>
 <path d="m3.1099 9.9704c-0.41 0-0.75-0.34-0.75-0.75v-2.77c0-0.06 0.01-0.12 0.02-0.17 0.02-0.08 0.05-0.15 0.09-0.22 0.03-0.05 0.06-0.09 0.1-0.13s0.09-0.07999 0.14-0.10999c0.02-0.01 0.05-0.03001 0.07-0.04001l2.21-1.1c0.37-0.18 0.82-0.03999 1.01 0.34001 0.19 0.37 0.04001 0.81999-0.33999 1.01l-0.88001 0.44 0.88001 0.44001c0.37 0.19 0.51999 0.63999 0.33999 1.01s-0.64 0.52-1.01 0.34l-1.14-0.57v1.56c0.01 0.39-0.32 0.72-0.74 0.72z" opacity=".4"/>
 <path d="m14.22 3.8598c-0.11 0-0.23-0.03-0.33-0.08l-1.89-0.94001-1.89 0.94001c-0.37001 0.19-0.82001 0.04-1.01-0.34-0.19-0.37-0.04-0.82001 0.34-1.01l2.22-1.11c0.21-0.11 0.46-0.11 0.67 0l2.22 1.11c0.37 0.19 0.52 0.64001 0.34 1.01-0.13 0.27-0.39 0.42-0.67 0.42z"/>
 <path d="m20.89 9.9703c-0.41 0-0.75-0.34-0.75-0.75v-1.56l-1.14 0.56999c-0.37 0.19-0.82 0.04001-1.01-0.33999-0.19-0.37-0.04-0.82 0.34-1.01l0.88-0.44-0.88-0.44c-0.37-0.19-0.52-0.64-0.34-1.01s0.64-0.52001 1.01-0.34001l2.21 1.1c0.02 0.01 0.05 0.01999 0.07 0.03999 0.06 0.03 0.11 0.08001 0.16 0.13001 0.03 0.04 0.06 0.07999 0.09 0.11999 0.04 0.07 0.07 0.14 0.09 0.22 0.01 0.06 0.02 0.12 0.02 0.17v2.77c0 0.44-0.34 0.77001-0.75 0.77001z" opacity=".4"/>
</svg>

<svg width="24" height="24" viewBox="0 0 24 24"  xmlns="http://www.w3.org/2000/svg">
<path opacity="0.4" d="M5.33012 19.4203C5.22012 19.4203 5.10011 19.3903 5.00011 19.3403L2.78011 18.2303C2.53011 18.1003 2.37012 17.8403 2.37012 17.5603V14.7803C2.37012 14.3703 2.71012 14.0303 3.12012 14.0303C3.53012 14.0303 3.87012 14.3703 3.87012 14.7803V17.0903L5.68011 17.9903C6.05011 18.1803 6.20011 18.6303 6.02011 19.0003C5.87011 19.2603 5.61012 19.4203 5.33012 19.4203Z" />
<path d="M12 22.7497C11.94 22.7497 11.88 22.7397 11.83 22.7297C11.77 22.7197 11.71 22.6897 11.65 22.6597L9.43996 21.5597C9.06996 21.3697 8.91996 20.9197 9.09996 20.5497C9.28996 20.1797 9.73996 20.0297 10.11 20.2097L11.25 20.7797V19.2197C11.25 18.8097 11.59 18.4697 12 18.4697C12.41 18.4697 12.75 18.8097 12.75 19.2197V20.7797L13.89 20.2097C14.26 20.0297 14.71 20.1797 14.9 20.5497C15.09 20.9197 14.94 21.3697 14.56 21.5597L12.35 22.6597C12.29 22.6897 12.23 22.7097 12.17 22.7297C12.11 22.7397 12.06 22.7497 12 22.7497Z" />
<path opacity="0.4" d="M18.6702 19.42C18.4002 19.42 18.1302 19.27 18.0002 19.01C17.8102 18.64 17.9602 18.19 18.3402 18L20.1502 17.1001V14.79C20.1502 14.38 20.4902 14.04 20.9002 14.04C21.3102 14.04 21.6502 14.38 21.6502 14.79V17.5701C21.6502 17.8501 21.4902 18.1101 21.2402 18.2401L19.0202 19.3501C18.8902 19.3901 18.7802 19.42 18.6702 19.42Z" />
<path d="M12 14.42C11.59 14.42 11.25 14.08 11.25 13.67V11.36L9.43996 10.4601C9.06996 10.2701 8.91996 9.82004 9.09996 9.45004C9.28996 9.08004 9.73996 8.93005 10.11 9.11005L12 10.05L13.89 9.11005C14.26 8.93005 14.71 9.07004 14.9 9.45004C15.09 9.82004 14.94 10.2701 14.56 10.4601L12.75 11.36V13.67C12.75 14.08 12.41 14.42 12 14.42Z" />
<path opacity="0.4" d="M3.10986 9.97036C2.69986 9.97036 2.35986 9.63036 2.35986 9.22036V6.46037V6.45036C2.35986 6.39036 2.36986 6.33036 2.37986 6.28036C2.39986 6.20036 2.42986 6.13036 2.46986 6.06036C2.49986 6.01036 2.52986 5.97036 2.56986 5.93036C2.60986 5.89036 2.65986 5.85037 2.70986 5.82037C2.72986 5.81037 2.75986 5.79036 2.77986 5.78036L4.98986 4.68036C5.35986 4.50036 5.80986 4.64037 5.99986 5.02037C6.18986 5.39037 6.03987 5.84036 5.65987 6.03036L4.77986 6.47036L5.65987 6.91037C6.02987 7.10037 6.17986 7.55036 5.99986 7.92036C5.81986 8.29036 5.35986 8.44036 4.98986 8.26036L3.84986 7.69036V9.25036C3.85986 9.64036 3.52986 9.97036 3.10986 9.97036Z" />
<path d="M14.2198 3.8598C14.1098 3.8598 13.9898 3.8298 13.8898 3.7798L11.9998 2.83979L10.1098 3.7798C9.73979 3.9698 9.28979 3.8198 9.09979 3.4398C8.90979 3.0698 9.05979 2.61979 9.43979 2.42979L11.6598 1.3198C11.8698 1.2098 12.1198 1.2098 12.3298 1.3198L14.5498 2.42979C14.9198 2.61979 15.0698 3.0698 14.8898 3.4398C14.7598 3.7098 14.4998 3.8598 14.2198 3.8598Z" />
<path opacity="0.4" d="M20.8899 9.97026C20.4799 9.97026 20.1399 9.63026 20.1399 9.22026V7.66026L18.9999 8.23025C18.6299 8.42025 18.1799 8.27026 17.9899 7.89026C17.7999 7.52026 17.9499 7.07026 18.3299 6.88026L19.2099 6.44026L18.3299 6.00026C17.9599 5.81026 17.8099 5.36026 17.9899 4.99026C18.1699 4.62026 18.6299 4.47025 18.9999 4.65025L21.2099 5.75026C21.2299 5.76026 21.2599 5.77025 21.2799 5.79025C21.3399 5.82025 21.3899 5.87026 21.4399 5.92026C21.4699 5.96026 21.4999 6.00025 21.5299 6.04025C21.5699 6.11025 21.5999 6.18025 21.6199 6.26025C21.6299 6.32025 21.6399 6.38025 21.6399 6.43025V6.44026V9.20025C21.6399 9.64025 21.2999 9.97026 20.8899 9.97026Z" />
</svg>
